X:322
T:Goddesses
M:C | 
L:1/8
K:Em
E2 E2 G2 FE | F2 F2 A2 GF | E2 E2 G2 FG | B2 B2 B4 :|| 
d2 B2 G3 B | A2 F2 D3 F | G2 E2 D2 F2 | E2 E2 E4 :|| 

